assets/si/si-fujitsu.svg

<svg xmlns="http://www.w3.org/2000/svg" width="100%" height="100%" viewBox="-3.36 -3.36 30.72 30.72"><path d="M16.56 3c-2.41 0-4.52 1.24-5.88 2.97v3.79c1.82-5.05 5.88-4.68 5.88-4.68 2.94 0 5.28 2.3 5.28 5.12 0 2.84-2.34 5.13-5.28 5.13a5.32 5.32 0 01-3.72-1.5l-2.56-2.8a6.06 6.06 0 00-4.25-1.71C2.7 9.32 0 11.93 0 15.16 0 18.4 2.7 21 6.03 21c1.87 0 3.55-.81 4.65-2.11v-3.03c-1.8 3.43-4.65 3.06-4.65 3.06-2.13 0-3.86-1.68-3.86-3.76 0-2.06 1.73-3.74 3.86-3.74 1.06 0 2.02.42 2.72 1.08l2.56 2.81a7.5 7.5 0 005.25 2.12c4.11 0 7.44-3.24 7.44-7.23S20.67 3 16.56 3z"/></svg>

<svg xmlns="http://www.w3.org/2000/svg" width="100%" height="100%" viewBox="-3.36 -3.36 30.72 30.72"><path d="M16.56 3C14.15 3 12.04 4.24 10.68 5.97L10.68 9.76C12.5 4.71 16.56 5.08 16.56 5.08C19.5 5.08 21.84 7.38 21.84 10.2C21.84 13.04 19.5 15.33 16.56 15.33A5.32 5.32 0 0 1 12.84 13.83L10.28 11.03A6.06 6.06 0 0 0 6.03 9.32C2.7 9.32 0 11.93 0 15.16C0 18.4 2.7 21 6.03 21C7.9 21 9.58 20.19 10.68 18.89L10.68 15.86C8.88 19.29 6.03 18.92 6.03 18.92C3.9 18.92 2.17 17.24 2.17 15.16C2.17 13.1 3.9 11.42 6.03 11.42C7.09 11.42 8.05 11.84 8.75 12.5L11.31 15.31A7.5 7.5 0 0 0 16.56 17.43C20.67 17.43 24 14.19 24 10.2C24 6.21 20.67 3 16.56 3Z"/></svg>
